X:27
T:Ashford Anniversary
M:2/2
L:1/4
S:Colin Hume's website,  colinhume.com  - chords can also be printed below the stave.
Q:1/2=120
K:G
P:A
|: "G"GGAG | "G"GD"D"DE/F/ | "G"GGAG | "D"D2D2 :|
P:B
|: "G"BBBA/B/ | "C"cBAG | "G"BBBA/B/ | "C"cB"D"Ac | "G"BG"D"AG/F/ | "G"G2G2 :|

